X:1
T:Pretty Maggie Morrissey
M:4/4
L:1/8
R:reel
K:Gmaj
Bc|:dBGB cAFA|DGGF GABc|d~g3 efge|dBGB A2 Bc|
|dBGB cAFA|DGG/G/F GABc|d~g3 ecAF|GBAF G2 Bc:||
|:d~g3 efge|degd e2 Bc|d~g3 efge|dBGB A2 Bc|
|dBGB cAFA|DGAF GABc|dgfg ecAF|GBAF G2 Bc:||
